16x16/apps/com.github.unrud.VideoDownloader.svg

<svg height="16" width="16" xmlns="http://www.w3.org/2000/svg"><path d="m0 2v13h1v-1h1v1h12v-1h1v1h1v-13h-1v1h-1v-1h-12v1h-1v-1zm1 3h1v1h-1zm13 0h1v1h-1zm-13 3h1v1h-1zm13 0h1v1h-1zm-13 3h1v1h-1zm13 0h1v1h-1z" fill="#ed5b36"/><g fill="#f4f4f7"><path d="m8 13.256-3.22-3.256h6.44z"/><path d="m6 9h4v1.867h-4z"/><path d="m6 9h1.333v-1.333h-1.333z" fill-opacity=".68"/><path d="m7.333 9h1.334v-1.333h-1.334z"/><path d="m8.667 9h1.333v-1.333h-1.333z" fill-opacity=".88"/><path d="m10 7.667h-1.333v-1.334h1.333z" fill-opacity=".68"/><path d="m8.667 7.667h-1.334v-1.334h1.334z" fill-opacity=".54"/><path d="m7.333 7.667h-1.333v-1.334h1.333z" fill-opacity=".88"/><path d="m10 6.333h-1.333v-1.333h1.333z" fill-opacity=".19"/><path d="m8.667 6.333h-1.334v-1.333h1.334z" fill-opacity=".34"/><path d="m7.333 6.333h-1.333v-1.333h1.333z" fill-opacity=".06"/></g></svg>

<svg height="16" width="16" xmlns="http://www.w3.org/2000/svg">
    <path d="M0 2v13h1v-1h1v1h12v-1h1v1h1V2h-1v1h-1V2H2v1H1V2zm1 3h1v1H1zm13 0h1v1h-1zM1 8h1v1H1zm13 0h1v1h-1zM1 11h1v1H1zm13 0h1v1h-1z" fill="#ed5b36"/>
    <g fill="#f4f4f7">
        <path d="M8 13.256 4.78 10h6.44z"/>
        <path d="M6 9h4v1.867H6z"/>
        <path d="M6 9h1.333V7.667H6z" fill-opacity=".68"/>
        <path d="M7.333 9h1.334V7.667H7.333z"/>
        <path d="M8.667 9H10V7.667H8.667z" fill-opacity=".88"/>
        <path d="M10 7.667H8.667V6.333H10z" fill-opacity=".68"/>
        <path d="M8.667 7.667H7.333V6.333h1.334z" fill-opacity=".54"/>
        <path d="M7.333 7.667H6V6.333h1.333z" fill-opacity=".88"/>
        <path d="M10 6.333H8.667V5H10z" fill-opacity=".19"/>
        <path d="M8.667 6.333H7.333V5h1.334z" fill-opacity=".34"/>
        <path d="M7.333 6.333H6V5h1.333z" fill-opacity=".06"/>
    </g>
</svg>
